src/assets/Admin.svg

<svg width="28" height="28" viewBox="0 0 28 28" fill="none" xmlns="http://www.w3.org/2000/svg">
<path d="M13.9991 -1.22392e-06C6.26706 -5.47959e-07 -0.000854675 6.26792 -0.0008549 14C-0.000855125 21.7321 6.26706 28 13.9991 28C21.7312 28 27.9991 21.7321 27.9991 14C27.9904 6.27083 21.7283 0.0087481 13.9991 -1.22392e-06ZM8.16581 24.0887L8.16581 23.3333C8.16581 20.1104 10.7762 17.5 13.9991 17.5C17.2221 17.5 19.8325 20.1104 19.8325 23.3333L19.8325 24.0887C16.2275 26.1917 11.7708 26.1917 8.16581 24.0887ZM10.4991 11.6667C10.4991 9.73291 12.0654 8.16666 13.9991 8.16666C15.9329 8.16666 17.4991 9.73291 17.4991 11.6667C17.4991 13.6004 15.9329 15.1667 13.9991 15.1667C12.0654 15.1667 10.4991 13.6004 10.4991 11.6667ZM22.1046 22.3737C21.7837 19.6904 20.1591 17.3367 17.7587 16.0912C20.2233 14.0146 20.5354 10.3337 18.4587 7.87208C16.3821 5.4075 12.7012 5.09542 10.2396 7.17208C7.77498 9.24875 7.46289 12.9296 9.53956 15.3912C9.75248 15.645 9.98581 15.8783 10.2396 16.0912C7.83915 17.3367 6.21456 19.6904 5.89373 22.3737C1.25914 17.8967 1.13081 10.5117 5.6079 5.87708C10.085 1.2425 17.47 1.11416 22.1046 5.59125C26.7391 10.0683 26.8675 17.4533 22.3904 22.0879C22.2971 22.1842 22.2008 22.2804 22.1046 22.3737Z" fill="#999999"/>
</svg>

<svg xmlns="http://www.w3.org/2000/svg" width="28" height="28" fill="none"><path fill="#999" d="M14 0C6.266 0 0 6.268 0 14s6.267 14 14 14c7.731 0 14-6.268 14-14C27.99 6.27 21.727.009 14 0M8.165 24.089v-.756a5.83 5.83 0 0 1 5.833-5.833 5.83 5.83 0 0 1 5.833 5.833v.756a11.58 11.58 0 0 1-11.666 0m2.333-12.422a3.5 3.5 0 0 1 3.5-3.5c1.934 0 3.5 1.566 3.5 3.5s-1.566 3.5-3.5 3.5a3.5 3.5 0 0 1-3.5-3.5m11.606 10.707a8.17 8.17 0 0 0-4.346-6.283 5.83 5.83 0 0 0 .7-8.219 5.83 5.83 0 0 0-8.22-.7 5.83 5.83 0 0 0 0 8.92 8.17 8.17 0 0 0-4.345 6.282C1.259 17.897 1.13 10.512 5.608 5.877s11.862-4.763 16.497-.286 4.762 11.862.285 16.497q-.141.145-.285.286"/></svg>
